!!!OTL@@DE: Herr Bruder, nimm das Gl&auml;schen
!!!ODT: ~1810
!!!OMD: M&auml;ssig geschwind
!!!ONB: Volkslied
!!!LDT: 1810
!!!OCL: Erk, Ludwig
!!!GCO: Deutscher Liederschatz, Band 1
**kern	**kern	**kern
*staff3	*staff2	*staff1
*Ipiano	*Ipiano	*Ivox
*clefF4	*clefG2	*clefG2
*k[]	*k[]	*k[]
*C:	*C:	*C:
*M6/8	*M6/8	*M6/8
*MM96	*MM96	*MM96
8r	(16c/LL	16c/LL
.	16e/JJ)	16e/JJ
=1	=1	=1
*^	*	*
8C/L	4.C\	4e/ 4g/	4g/
8G/	.	.	.
8c/J	.	8e/ 8g/	8g/
8C/L	4.C\	4e/ 4g/	4g/
8G/	.	.	.
8c/J	.	8e/ 8cc/	8cc\
=2	=2	=2	=2
8C/L	4.C\	4.e/ 4.g/	4.g/
8G/	.	.	.
8c/J	.	.	.
8C/L	4.C\	4c/ 4e/	4e/
8G/	.	.	.
8c/J	.	8e/ 8g/	8g/
=3	=3	=3	=3
8GG/L	4.GG\	(8d/ 8f/L	8f/L
8D/	.	8c/) 8e/	8e/J
8G/J	.	8d/ 8f/J	8f/
4G/	8F\L	(8B/ 8d/L	8d/L
.	8E\	8c/) 8e/	8e/J
8G/	8D\J	8d/ 8f/J	8f/
=4	=4	=4	=4
8C/L	4.C\	4.e/ 4.g/	4.g/
8G/	.	.	.
8c/J	.	.	.
8C/L	4.C\	4c/ 4e/	4r
8E/	.	.	.
8G/J	.	(16c/LL	(16c/LL
.	.	&(16e/JJ&))	16e/JJ)
=5	=5	=5	=5
8C/L	4.C\	4e/ 4g/	4g/
8G/	.	.	.
8c/J	.	8e/ 8g/	8g/
8C/L	4.C\	4e/ 4g/	4g/
8G/	.	.	.
8c/J	.	8e/ 8g/	8g/
=6	=6	=6	=6
*	*	*^	*
8C/L	4.C\	(4g/	4.e\	(4g/
8E/	.	.	.	.
8G/J	.	8cc/)	.	8cc\)
*	*	*v	*v	*
8C/L	4.C\	4g\ 4ee\	4ee\
8G/	.	.	.
8c/J	.	8e/ 8cc/	8cc\
=7	=7	=7	=7
4.F\	8F/L	4f/ 4a/ 4dd/	4dd\
.	8A/	.	.
.	8d/J	8f/ 8a/ 8dd/	8dd\
.	.	.	(ccq/
4G\	4G/	(8d/ 8g/ 8b/L	8b/L)
.	.	8c/) 8a/	8a/J
8ryy	8GG/ 8G/	8d/ 8f/ 8b/J	8b\
=8	=8	=8	=8
8C/L	4.C\	4.e/ 4.cc/	4.cc\
8G/	.	.	.
8c/J	.	.	.
4C/	4C\	4r	4r
*v	*v	*	*
8r	8d/	8d/
=9	=9	=9
4.D\ 4.A\	(8c/L	4d/
.	8d/	.
.	8f#/J)	8d/
4.D\	(8c/L	8cc/L
.	8d/	8a/J
.	8f#/J)	8f#/
=10	=10	=10
4.D\ 4.G\	(8B/L	4g/
.	8d/	.
.	8g/J)	8b/
4.D\	(8B/L	4d/
.	8d/	.
.	8g/J)	8d/
=11	=11	=11
4.D\ 4.F#\	(8c/L	4d/
.	8d/	.
.	8a/J)	8d/
4.D\ 4.A\	(8c/L	8cc/L
.	8d/	8a/J
.	8f#/J)	8f#/
=12	=12	=12
8GG/L	[4.B/ [4.d/ [4.g/	[4.g/
8BB/	.	.
8D/J	.	.
*	*^	*
8G\	(8g/L]	8B\] 8d\]	8g/L]
8r	8f#/	8r	8f#/J
8r	8fn/J)	8r	8fn/
*	*v	*v	*
=13	=13	=13
*^	*	*
8C/L	4.C\	4e/	4e/
8E/	.	.	.
8G/J	.	8e/	8e/
8D/L	4.D\	8.f/L	8.f/L
8G/	.	.	.
.	.	16e/k	16e/Jk
8B/J	.	8f/J	8f/
=14	=14	=14	=14
8E/L	4.E\	(4g/	(4g/
8G/	.	.	.
8c/J	.	8g/ 8cc/)	8cc\)
8C/L	4.C\	4cc\ 4ee\	4ee\
8G/	.	.	.
8c/J	.	8e/ 8g/ 8cc/	8cc\
=15	=15	=15	=15
8F/L	4.F\	4f/ 4a/ 4dd/	4dd\
8A/	.	.	.
8d/J	.	8f/ 8a/ 8dd/	8dd\
.	.	.	(ccq/
*	*	*^	*
8GG/L	4.GG\	8.b/L	4f\ 4g\	8.b/L)
8G/	.	.	.	.
.	.	16a/k	.	16a/Jk
8G/J	.	8b/J	8f\ 8g\	8b\
*	*	*v	*v	*
=16	=16	=16	=16
4.C\	(8C/L	4.e/ 4.g/ 4.cc/	4.cc\
.	8E/	.	.
.	8G/J	.	.
*v	*v	*	*
4c\)	4r	4r
8C\ 8E\	8G/ 8c/	8c/
=17	=17	=17
4C\ 4E\	4G/ 4c/	4c/
8C\ 8G\	8c/ 8e/	8e/
4C\ 4G\	4c/ 4e/	4e/
8c\	8e/ 8g/	8g/
=18	=18	=18
4c\	4e/ 4g/	4g/
8C\ 8c\	8e/ 8g/ 8cc/	8cc\
4C\ 4c\	4g\ 4cc\ 4ee\	4ee\
8C\ 8c\	8e/ 8g/ 8cc/	8cc\
=19	=19	=19
4F\ 4A\	4f/ 4a/ 4dd/	4dd\
8F\ 8d\	8f/ 8dd/	8dd\
.	.	(ccq/
*	*^	*
4G\ 4d\	8.b/L	4f\	8.b/L)
.	16a/k	.	16a/Jk
8G\ 8d\	8b/J	8f\	8b\
*	*v	*v	*
=20	=20	=20
8C\ 8c\L	8e/ 8cc/L	4cc\
8G\	8g/	.
8F\J	8f/J	8r
8E\L	8e/L	4r
8D\	8d/	.
8C\ 8E\ 8G\J	8c/J	8c/
=21	=21	=21
4C\ 4E\ 4G\	4c/	4c/
8C\ 8G\	8c/ 8e/	8e/
4C\ 4G\	4c/ 4e/	4e/
8C\ 8c\	8e/ 8g/	8g/
=22	=22	=22
4C\ 4c\	4e/ 4g/	4g/
8C\ 8c\	8e/ 8g/ 8cc/	8cc\
4C\ 4G\	4g\ 4cc\ 4ee\	4ee\
8C\ 8c\	8e/ 8g/ 8cc/	8cc\
=23	=23	=23
4F\ 4A\	4f/ 4a/ 4dd/	4dd\
8F\ 8d\	8f/ 8a/ 8dd/	8dd\
.	.	(ccq/
*	*^	*
4G\ 4d\	8.b/L	4f\ 4g\	8.b/L)
.	16a/k	.	16a/Jk
8G\ 8d\	8b/J	8f\ 8g\	8b\
*	*v	*v	*
=24	=24	=24
4C\ 4c\	4e/ 4g/ 4cc/	4cc\
8r	8r	8r
4r;	4r;	4r;
==	==	==
*-	*-	*-
!!!ENC: Craig Stuart Sapp
!!!END: 2004/06/28/
!!!EFL: 183/651
